svg/Pictogram/pictograms-nps-campfire.svg

<?xml version="1.0" encoding="UTF-8" standalone="no"?>
<!-- Generator: Adobe Illustrator 13.0.2, SVG Export Plug-In . SVG Version: 6.00 Build 14948)  -->
<svg
   xmlns:dc="http://purl.org/dc/elements/1.1/"
   xmlns:cc="http://creativecommons.org/ns#"
   xmlns:rdf="http://www.w3.org/1999/02/22-rdf-syntax-ns#"
   xmlns:svg="http://www.w3.org/2000/svg"
   xmlns="http://www.w3.org/2000/svg"
   xmlns:sodipodi="http://sodipodi.sourceforge.net/DTD/sodipodi-0.dtd"
   xmlns:inkscape="http://www.inkscape.org/namespaces/inkscape"
   version="1.1"
   id="Layer_1"
   x="0px"
   y="0px"
   width="123.547px"
   height="123.539px"
   viewBox="-0.258 -0.548 123.547 123.539"
   style="enable-background:new -0.258 -0.548 123.547 123.539;"
   xml:space="preserve"
   sodipodi:version="0.32"
   inkscape:version="0.46"
   sodipodi:docname="pictograms-nps-campfire-2.svg"
   inkscape:output_extension="org.inkscape.output.svg.inkscape"><metadata
   id="metadata17898"><rdf:RDF><cc:Work
       rdf:about=""><dc:format>image/svg+xml</dc:format><dc:type
         rdf:resource="http://purl.org/dc/dcmitype/StillImage" /></cc:Work></rdf:RDF></metadata><defs
   id="defs17896"><inkscape:perspective
     sodipodi:type="inkscape:persp3d"
     inkscape:vp_x="0 : 61.769501 : 1"
     inkscape:vp_y="0 : 1000 : 0"
     inkscape:vp_z="123.547 : 61.769501 : 1"
     inkscape:persp3d-origin="61.773499 : 41.179667 : 1"
     id="perspective17900" /></defs><sodipodi:namedview
   inkscape:window-height="700"
   inkscape:window-width="727"
   inkscape:pageshadow="2"
   inkscape:pageopacity="0.0"
   guidetolerance="10.0"
   gridtolerance="10.0"
   objecttolerance="10.0"
   borderopacity="1.0"
   bordercolor="#666666"
   pagecolor="#ffffff"
   id="base"
   showgrid="false"
   inkscape:zoom="0.93897473"
   inkscape:cx="168.61768"
   inkscape:cy="47.747459"
   inkscape:window-x="0"
   inkscape:window-y="232"
   inkscape:current-layer="Layer_1" />

<path
   d="M 14.570814,1.5126484 C 7.7711379,1.5126484 2.2511057,7.045228 2.2511057,13.832358 L 2.2511057,108.19982 C 2.2511057,114.96186 7.7711379,120.46935 14.570814,120.46935 L 108.92573,120.46935 C 115.71286,120.46935 121.2329,114.96186 121.2329,108.19982 L 121.2329,13.832358 C 121.2329,7.045228 115.71286,1.5126484 108.92573,1.5126484 L 14.570814,1.5126484 z"
   style="fill:#ffffff;fill-opacity:1;fill-rule:nonzero;stroke:none"
   id="path10035" /><path
   d="M 108.92573,122.991 C 117.11796,122.991 123.742,116.37951 123.742,108.19982 L 123.742,13.832358 C 123.742,5.6526741 117.11796,-0.99645763 108.92573,-0.99645763 L 14.570814,-0.99645763 C 6.3911298,-0.99645763 -0.258,5.6526741 -0.258,13.832358 L -0.258,108.19982 C -0.258,116.37951 6.3911298,122.991 14.570814,122.991 L 108.92573,122.991 z"
   style="fill:#000000;fill-opacity:1;fill-rule:nonzero;stroke:none"
   id="path10037" /><path
   d="M 18.974295,86.031874 L 9.8913325,86.031874 L 9.8913325,103.94689 C 9.8913325,109.42928 14.809179,113.90804 20.881215,113.90804 L 100.49514,113.90804 C 106.56717,113.90804 111.49757,109.42928 111.49757,103.94689 L 111.49757,86.031874 L 102.40206,86.031874 L 102.40206,102.03997 C 102.40206,104.04725 100.5955,105.67817 98.387491,105.67817 L 23.001409,105.67817 C 20.768305,105.67817 18.974295,104.04725 18.974295,102.03997 L 18.974295,86.031874 z"
   style="fill:#ffffff;fill-opacity:1;fill-rule:nonzero;stroke:none"
   id="path10039" /><path
   d="M 91.299263,98.000308 L 91.299263,83.886589 L 30.001814,63.424832 L 30.001814,77.538551 L 91.299263,98.000308 z"
   style="fill:#ffffff;fill-opacity:1;fill-rule:nonzero;stroke:none"
   id="path10041" /><path
   d="M 44.140625,63.424832 C 42.032976,61.053727 28.019621,44.85745 42.158431,30.831549 C 53.951229,19.151663 55.657421,9.3536042 51.693034,4.5737579 C 51.693034,4.5737579 81.676844,16.893468 64.03783,45.484727 C 61.026907,50.339846 53.474498,56.073152 57.426339,67.89104 L 44.140625,63.424832 z"
   style="fill:#ffffff;fill-opacity:1;fill-rule:nonzero;stroke:none"
   id="path10043" /><path
   d="M 62.557459,67.326491 C 61.917638,64.91775 59.044713,59.69881 67.814037,49.311113 C 72.506066,43.778535 74.274984,35.561214 74.688984,32.475014 C 74.688984,32.475014 90.220347,41.369793 74.776806,63.161376 L 62.557459,67.326491 z"
   style="fill:#ffffff;fill-opacity:1;fill-rule:nonzero;stroke:none"
   id="path10045" /><path
   d="M 65.869479,70.651056 L 91.299263,62.170279 L 91.299263,76.283998 L 86.983603,77.701643 L 65.869479,70.651056 z"
   style="fill:#ffffff;fill-opacity:1;fill-rule:nonzero;stroke:none"
   id="path10047" /><path
   d="M 55.456691,90.774083 L 30.001814,99.254861 L 30.001814,85.141141 L 34.330021,83.723497 L 55.456691,90.774083 z"
   style="fill:#ffffff;fill-opacity:1;fill-rule:nonzero;stroke:none"
   id="path10049" /></svg>

<svg xmlns="http://www.w3.org/2000/svg" width="123.55" height="123.54" viewBox="-0.258 -0.548 123.547 123.539" enable-background="new -0.258 -0.548 123.547 123.539"><path d="m14.571 1.513c-6.8 0-12.32 5.533-12.32 12.32v94.37c0 6.762 5.52 12.27 12.32 12.27h94.35c6.787 0 12.307-5.507 12.307-12.27v-94.37c0-6.787-5.52-12.32-12.307-12.32h-94.35" fill="#fff"/><path d="m108.93 122.99c8.192 0 14.816-6.611 14.816-14.791v-94.37c0-8.18-6.624-14.829-14.816-14.829h-94.35c-8.18 0-14.829 6.649-14.829 14.829v94.37c0 8.18 6.649 14.791 14.829 14.791h94.35"/><g fill="#fff"><path d="m18.974 86.03h-9.08v17.915c0 5.482 4.918 9.961 10.99 9.961h79.61c6.072 0 11-4.479 11-9.961v-17.915h-9.1v16.01c0 2.01-1.807 3.638-4.01 3.638h-75.39c-2.233 0-4.03-1.631-4.03-3.638v-16.01"/><path d="m91.3 98v-14.11l-61.3-20.462v14.11l61.3 20.462"/><path d="m44.14 63.42c-2.108-2.371-16.12-18.567-1.982-32.593 11.793-11.68 13.499-21.478 9.535-26.26 0 0 29.984 12.32 12.345 40.911-3.01 4.855-10.563 10.588-6.611 22.406l-13.286-4.466"/><path d="m62.56 67.33c-.64-2.409-3.513-7.628 5.257-18.02 4.692-5.533 6.461-13.75 6.875-16.836 0 0 15.531 8.895.088 30.686l-12.219 4.165"/><path d="m65.869 70.65l25.43-8.481v14.11l-4.316 1.418-21.11-7.05"/><path d="m55.46 90.77l-25.455 8.481v-14.11l4.328-1.418 21.13 7.05"/></g></svg>
